X: 3
T: Music In The Glen
M: C|
L: 1/8
R: reel
K: Am
|:\
"A"A2cA "D"FA"(E)"ED | "A"CEAc BABc | "D"d2fd "A"c2ec | "Bm"dBcA "E"BAFE |
"A"AcBA "D"FA"(E)"ED | "A"CEAc BABc | "D"defg "A"agaf |1 "E"ecBc "A"A3E :|\
[2 "E"ecBc "A"A3B ||
|:\
"A"cA eA "D"fA"(E)"ed | "A"cAec "E"dBGB | "A"cAeA "D"fe"(E)"fg | "A"aecA "E"BAFA |
"A"cAeA "D"fe"(E)"fg | "A*"a2ga "E"bgeg | "A"a2ga "D"faec |1 "Bm"dBcA "E"BAFA :|\
[2 "Bm"dBcA "E"BAFE |]
%%begintext ragged
%% *Transition: After the A chord with the asterisk, backup drops out.
%%endtext ragged
%%begintext ragged
%% If ending with this tune, tack on an A at the end.
%%endtext ragged
%%textfont Times-Roman 6.0
%%date 4/18/11

